public/avatar/hat/243.svg

<svg xmlns:xlink="http://www.w3.org/1999/xlink" height="92.9" width="100.7" xmlns="http://www.w3.org/2000/svg"><use height="18.9" transform="translate(24.65 45.7)" width="43.95" xlink:href="#a"/><defs><g id="a" fill-rule="evenodd"><path d="m25.7 3.2.15.45v.05Q25.7 4.45 25 5q.2.5 0 1.3l-.2.65-.3.3-.4-.1L24 7q-5.65-5.25-14.75.7l-.3.05-.3-.15q-.5-.9-.5-2.35l.1-.3.3-.1 1.65-.9q8.65-5.3 15.5-.75" fill="#414244" transform="translate(14 4.05)"/><path d="M24.15 6.05Q21.5 4.1 19.7 3.8 15.1 2.95 8.95 7l-.4-1.75q.85 0 5.7-2.7Q19.8.55 24.9 3.7l-.8.9.05 1.45" fill="#b4c7cc" transform="translate(14 4.05)"/><path d="m28.75 8.95.15-.1q.25-.15.5 0l.25.35.05.85q0 1-.35 1.5.6.85.6 1.75v.05l-.35.45q-6 2.2-11.15-.2-2.9-1.35-6.5-5l-1.7-1.5-.3-.2-.05-.4L11.2 4q.15-.15.35-.15.3 0 .35.15 8.9 9.45 16.85 4.95" fill="#414244" transform="translate(14 4.05)"/><path d="M22.85 11.45q1.95.15 5.8-1.3.1 1.2-.5 1.6L28.9 13q-6.8 2.25-12.65-1.6-4.9-4.45-5.85-4.75l.95-1.9q5.95 6.4 11.5 6.7" fill="#fff" transform="translate(14 4.05)"/><path d="M22.85 11.45q1.95.15 5.8-1.3l-.1 1.05q-3.7 1.9-8.8.4l.85.55q-6.1-1.2-9.5-7.1l.25-.3q5.95 6.4 11.5 6.7" fill="#b4c7cc" transform="translate(14 4.05)"/><path d="m-9.1 8.25.2.5L-9 9q-.3.4-.9.55l.4.35q.35.1.35.45t-.35.5l-2 .05q-1.2-.3-1.45-.95l-.05-.3.85-1.95q.85-1.65 1.35-1.85l.4.05.25.3q.45 1.55 1.05 2.05" transform="translate(14 4.05)"/><path d="M-11.9 9.65q-.1-.4.35-1.4.45-1 .8-1.1 0 .65.6 1.35l-.8.65.85 1.2q-1.7.25-1.8-.7" fill="#803500" transform="translate(14 4.05)"/><path d="M-10.7 9.8q-.55 0-.55-1.2l.55.25-.25.3.25.65" fill="#421400" transform="translate(14 4.05)"/><path d="m11.1 6.05.4-.05q.55.15 1.35 1.8l.8 2v.25q-.25.7-1.45.95l-2-.05q-.35-.1-.35-.45 0-.3.35-.5l.4-.35q-.65-.2-.9-.55l-.1-.25.2-.45q.5-.4 1.05-2.05l.25-.3" transform="translate(14 4.05)"/><path d="M12.6 9.75q-.1.95-1.8.7.65-.2.85-1.2l-.8-.6q.6-.7.6-1.4.4.15.8 1.1.45 1 .35 1.4" fill="#803500" transform="translate(14 4.05)"/><path d="M12.6 9.75q-.1.85-1.65.75l1.65-1.05v.3m-.95-.5-.8-.6q1-.1 1.2-.75l.45 1.05-.85.3" fill="#421400" transform="translate(14 4.05)"/><path d="M12.05 7.85h-23.7q-.45 0-.45-.55.15-1.1 1-2.4l.9-1.1.35-.1q20.35-.35 20.95.1l1.05 1.55q.75 1.45.55 2.05-.15.45-.65.45" fill="#414244" transform="translate(14 4.05)"/><path d="M10.5 4.65q1 .65 1.2 2.2l-22.65.05q.45-1.45 1.3-2.25 19.75-.3 20.15 0" fill="#fff" transform="translate(14 4.05)"/><path d="M10.5 4.65q1 .65 1.2 2.2l-22.65.05.25-.65q13.1 0 17.45.35l-12.25-2q15.55-.25 16 .05" fill="#b4c7cc" transform="translate(14 4.05)"/><path d="M.4-2.85.2-3.1l-.15-.45v-.15q.2-.35.5-.35L.7-4l.05.05q1.6.2 2.5 1.85 3.5-1.55 8.85 4.65l1 1.1q.45.45.05.8l-1.6.15.15 1.05v.05l-.35.45-.6-.15q-.7-.75-2.7-1.45v.2q0 1.05-.35 1.9l-.45.3q-.25.1-.45-.2l-2-2-1.95 2.5q-.2.2-.4.2l-.4-.25q-.4-.5-1-2.2l-3.2 2.8-.45.1-.4-.3-.25-3.15Q-6.95 6.2-8.4 7.3l-.55.1-.3-.45q0-1.3.95-3.2-1.5.3-4.9 2.15l-.6-.05-.2-.35.05-.2q1.1-2.45 4.35-4.25l-1.3-2.3.25-.45h.5q1.65.85 5.25-.4 3.45-1.2 5.3-.75" transform="translate(14 4.05)"/><path d="M1.5-1.45q.65-.75.2-1 .9.4 1.15 1.55Q5.45-2.45 8.6.25q1.65 1.45 3.5 3.65-1.3-.05-1.9-.45.45.3.4 1.2-2-1.25-3.65-1.3.8 1 .15 2.45L4.7 3.4q-.75.65-2.15 2.6L1.3 3.65q-1.2.6-3.45 2.75l-.45-3.25q-.35.05-2.55 1.15L-8 5.9q0-2 1.05-3.25-1.9-.1-4.5 1.2.8-1.75 3.55-2.7L-9.4.05l-.2-.55q1.75.45 5.5-.85 3.45-1.15 5.6-.1" fill="#803500" transform="translate(14 4.05)"/><path d="M2.1 5.05Q3.75 2.8 3.75.6q.7 1.35.95 2.85L2.55 6l-.45-.95M.75 1.6l.55 2.05q-1.65 1-3.4 2.75.25-1.25 1.3-2.55L.75 1.6m-4-1q.65 1.95.65 2.55Q-6.1 4.5-8 5.9l.05-.4Q-3.8 2.3-3.25.6m-3 1-.7 1.05q-1.9-.1-4.5 1.2Q-9.3 1.6-6.25 1.6M12.1 3.9q-1.3-.05-1.9-.45.45.3.4 1.2-2-1.25-3.65-1.3.8 1 .15 2.45Q6.9 3.65 5.6 2l2.15.6q-.5-3.05-4.1-3.85 2.4-.85 5.3 1.8L12.1 3.9" fill="#421400" transform="translate(14 4.05)"/><path d="M2.45.1q.35.55-.4 1.5l-.5-.65-2.2.75.1-1.1-.75.4-1.2.65L-2.9 0q-1.65 1.3-2.6 1.2l.35-1-1.1.1.8-.7-.1.25q.85.25.65.6l.75-.5 1.3-.6Q-2.4-.6-2.1.5L.1-.45.35.9l2.1-.8" fill="#d47a3b" transform="translate(14 4.05)"/></g></defs></svg>

<?xml version="1.0" encoding="UTF-8" standalone="no"?>
<svg xmlns:xlink="http://www.w3.org/1999/xlink" height="92.9px" width="100.7px" xmlns="http://www.w3.org/2000/svg">
  <g transform="matrix(1.0, 0.0, 0.0, 1.0, 38.65, 49.75)">
    <use height="18.9" transform="matrix(1.0, 0.0, 0.0, 1.0, -14.0, -4.05)" width="43.95" xlink:href="#shape0"/>
  </g>
  <defs>
    <g id="shape0" transform="matrix(1.0, 0.0, 0.0, 1.0, 14.0, 4.05)">
      <path d="M25.7 3.2 L25.85 3.65 25.85 3.7 Q25.7 4.45 25.0 5.0 25.2 5.5 25.0 6.3 L24.8 6.95 24.5 7.25 24.1 7.15 24.0 7.0 Q18.35 1.75 9.25 7.7 L8.95 7.75 8.65 7.6 Q8.15 6.7 8.15 5.25 L8.25 4.95 8.55 4.85 10.2 3.95 Q18.85 -1.35 25.7 3.2" fill="#414244" fill-rule="evenodd" stroke="none"/>
      <path d="M24.15 6.05 Q21.5 4.1 19.7 3.8 15.1 2.95 8.95 7.0 L8.55 5.25 Q9.4 5.25 14.25 2.55 19.8 0.55 24.9 3.7 L24.1 4.6 24.15 6.05" fill="#b4c7cc" fill-rule="evenodd" stroke="none"/>
      <path d="M28.75 8.95 L28.9 8.85 Q29.15 8.7 29.4 8.85 L29.65 9.2 29.7 10.05 Q29.7 11.05 29.35 11.55 29.95 12.4 29.95 13.3 L29.95 13.35 29.6 13.8 Q23.6 16.0 18.45 13.6 15.55 12.25 11.95 8.6 L10.25 7.1 9.95 6.9 9.9 6.5 11.2 4.0 Q11.35 3.85 11.55 3.85 11.85 3.85 11.9 4.0 20.8 13.45 28.75 8.95" fill="#414244" fill-rule="evenodd" stroke="none"/>
      <path d="M22.85 11.45 Q24.8 11.6 28.65 10.15 28.75 11.35 28.15 11.75 L28.9 13.0 Q22.1 15.25 16.25 11.4 11.35 6.95 10.4 6.65 L11.35 4.75 Q17.3 11.15 22.85 11.45" fill="#ffffff" fill-rule="evenodd" stroke="none"/>
      <path d="M22.85 11.45 Q24.8 11.6 28.65 10.15 L28.55 11.2 Q24.85 13.1 19.75 11.6 L20.6 12.15 Q14.5 10.95 11.1 5.05 L11.35 4.75 Q17.3 11.15 22.85 11.45" fill="#b4c7cc" fill-rule="evenodd" stroke="none"/>
      <path d="M-9.1 8.25 L-8.9 8.75 -9.0 9.0 Q-9.3 9.4 -9.9 9.55 L-9.5 9.9 Q-9.15 10.0 -9.15 10.35 -9.15 10.7 -9.5 10.85 L-11.5 10.9 Q-12.7 10.6 -12.95 9.95 L-13.0 9.65 -12.15 7.7 Q-11.3 6.05 -10.8 5.85 L-10.4 5.9 -10.15 6.2 Q-9.7 7.75 -9.1 8.25" fill="#000000" fill-rule="evenodd" stroke="none"/>
      <path d="M-11.9 9.65 Q-12.0 9.25 -11.55 8.25 -11.1 7.25 -10.75 7.15 -10.75 7.8 -10.15 8.5 L-10.95 9.15 -10.1 10.35 Q-11.8 10.6 -11.9 9.65" fill="#803500" fill-rule="evenodd" stroke="none"/>
      <path d="M-10.7 9.8 Q-11.25 9.8 -11.25 8.6 L-10.7 8.85 -10.95 9.15 -10.7 9.8" fill="#421400" fill-rule="evenodd" stroke="none"/>
      <path d="M11.1 6.05 L11.5 6.0 Q12.05 6.15 12.85 7.8 L13.65 9.8 13.65 10.05 Q13.4 10.75 12.2 11.0 L10.2 10.95 Q9.85 10.85 9.85 10.5 9.85 10.2 10.2 10.0 L10.6 9.65 Q9.95 9.45 9.7 9.1 L9.6 8.85 9.8 8.4 Q10.3 8.0 10.85 6.35 L11.1 6.05" fill="#000000" fill-rule="evenodd" stroke="none"/>
      <path d="M12.6 9.75 Q12.5 10.7 10.8 10.45 11.45 10.25 11.65 9.25 L10.85 8.65 Q11.45 7.95 11.45 7.25 11.85 7.4 12.25 8.35 12.7 9.35 12.6 9.75" fill="#803500" fill-rule="evenodd" stroke="none"/>
      <path d="M12.6 9.75 Q12.5 10.6 10.95 10.5 L12.6 9.45 12.6 9.75" fill="#421400" fill-rule="evenodd" stroke="none"/>
      <path d="M11.65 9.25 L10.85 8.65 Q11.85 8.55 12.05 7.9 L12.5 8.95 11.65 9.25" fill="#421400" fill-rule="evenodd" stroke="none"/>
      <path d="M12.05 7.85 L10.55 7.85 -11.65 7.85 Q-12.1 7.85 -12.1 7.3 -11.95 6.2 -11.1 4.9 L-10.2 3.8 -9.85 3.7 Q10.5 3.35 11.1 3.8 L12.15 5.35 Q12.9 6.8 12.7 7.4 12.55 7.85 12.05 7.85" fill="#414244" fill-rule="evenodd" stroke="none"/>
      <path d="M10.5 4.65 Q11.5 5.3 11.7 6.85 L-10.95 6.9 Q-10.5 5.45 -9.65 4.65 10.1 4.35 10.5 4.65" fill="#ffffff" fill-rule="evenodd" stroke="none"/>
      <path d="M10.5 4.65 Q11.5 5.3 11.7 6.85 L-10.95 6.9 -10.7 6.25 Q2.4 6.25 6.75 6.6 L-5.5 4.6 Q10.05 4.35 10.5 4.65" fill="#b4c7cc" fill-rule="evenodd" stroke="none"/>
      <path d="M0.4 -2.85 L0.2 -3.1 0.05 -3.55 0.05 -3.7 Q0.25 -4.05 0.55 -4.05 L0.7 -4.0 0.75 -3.95 Q2.35 -3.75 3.25 -2.1 6.75 -3.65 12.1 2.55 L13.1 3.65 Q13.55 4.1 13.15 4.45 L11.55 4.6 11.7 5.65 11.7 5.7 11.35 6.15 10.75 6.0 Q10.05 5.25 8.05 4.55 L8.05 4.75 Q8.05 5.8 7.7 6.65 L7.25 6.95 Q7.0 7.05 6.8 6.75 L4.8 4.75 2.85 7.25 Q2.65 7.45 2.45 7.45 L2.05 7.2 Q1.65 6.7 1.05 5.0 L-2.15 7.8 -2.6 7.9 -3.0 7.6 -3.25 4.45 Q-6.95 6.2 -8.4 7.3 L-8.95 7.4 -9.25 6.95 Q-9.25 5.65 -8.3 3.75 -9.8 4.05 -13.2 5.9 L-13.8 5.85 -14.0 5.5 -13.95 5.3 Q-12.85 2.85 -9.6 1.05 L-10.9 -1.25 -10.65 -1.7 -10.15 -1.7 Q-8.5 -0.85 -4.9 -2.1 -1.45 -3.3 0.4 -2.85" fill="#000000" fill-rule="evenodd" stroke="none"/>
      <path d="M1.5 -1.45 Q2.15 -2.2 1.7 -2.45 2.6 -2.05 2.85 -0.9 5.45 -2.45 8.6 0.25 10.25 1.7 12.1 3.9 10.8 3.85 10.2 3.45 10.65 3.75 10.6 4.65 8.6 3.4 6.95 3.35 7.75 4.35 7.1 5.8 L4.7 3.4 Q3.95 4.05 2.55 6.0 L1.3 3.65 Q0.1 4.25 -2.15 6.4 L-2.6 3.15 Q-2.95 3.2 -5.15 4.3 L-8.0 5.9 Q-8.0 3.9 -6.95 2.65 -8.85 2.55 -11.45 3.85 -10.65 2.1 -7.9 1.15 L-9.4 0.05 -9.6 -0.5 Q-7.85 -0.05 -4.1 -1.35 -0.65 -2.5 1.5 -1.45" fill="#803500" fill-rule="evenodd" stroke="none"/>
      <path d="M2.1 5.05 Q3.75 2.8 3.75 0.6 4.45 1.95 4.7 3.45 L2.55 6.0 2.1 5.05" fill="#421400" fill-rule="evenodd" stroke="none"/>
      <path d="M0.75 1.6 L1.3 3.65 Q-0.35 4.65 -2.1 6.4 -1.85 5.15 -0.8 3.85 L0.75 1.6" fill="#421400" fill-rule="evenodd" stroke="none"/>
      <path d="M-3.25 0.6 Q-2.6 2.55 -2.6 3.15 -6.1 4.5 -8.0 5.9 L-7.95 5.5 Q-3.8 2.3 -3.25 0.6" fill="#421400" fill-rule="evenodd" stroke="none"/>
      <path d="M-6.25 1.6 L-6.95 2.65 Q-8.85 2.55 -11.45 3.85 -9.3 1.6 -6.25 1.6" fill="#421400" fill-rule="evenodd" stroke="none"/>
      <path d="M12.1 3.9 Q10.8 3.85 10.2 3.45 10.65 3.75 10.6 4.65 8.6 3.4 6.95 3.35 7.75 4.35 7.1 5.8 6.9 3.65 5.6 2.0 L7.75 2.6 Q7.25 -0.45 3.65 -1.25 6.05 -2.1 8.95 0.55 L12.1 3.9" fill="#421400" fill-rule="evenodd" stroke="none"/>
      <path d="M2.45 0.1 Q2.8 0.65 2.05 1.6 L1.55 0.95 -0.65 1.7 -0.55 0.6 -1.3 1.0 -2.5 1.65 -2.9 0.0 Q-4.55 1.3 -5.5 1.2 L-5.15 0.2 -6.25 0.3 -5.45 -0.4 -5.55 -0.15 Q-4.7 0.1 -4.9 0.45 L-4.15 -0.05 -2.85 -0.65 Q-2.4 -0.6 -2.1 0.5 L0.1 -0.45 0.35 0.9 2.45 0.1" fill="#d47a3b" fill-rule="evenodd" stroke="none"/>
    </g>
  </defs>
</svg>
